src/assets/icons/typescript.svg

<svg xmlns="http://www.w3.org/2000/svg" width="256" height="256" fill="none"><rect width="256" height="256" fill="#007ACC" rx="60"/><path fill="#fff" d="m56.611 128.849-.081 10.484h33.32v94.679H113.42v-94.679h33.32v-10.281c0-5.689-.121-10.443-.284-10.565-.122-.162-20.399-.244-44.983-.203l-44.739.122-.122 10.443zM206.567 118.108c6.501 1.626 11.459 4.511 16.01 9.224 2.357 2.52 5.851 7.112 6.136 8.209.081.325-11.053 7.802-17.798 11.987-.244.163-1.22-.894-2.317-2.519-3.291-4.795-6.745-6.868-12.028-7.233-7.761-.529-12.759 3.535-12.718 10.321 0 1.991.284 3.169 1.097 4.795 1.706 3.535 4.876 5.648 14.832 9.955 18.326 7.884 26.168 13.085 31.045 20.48 5.445 8.249 6.664 21.415 2.966 31.208-4.063 10.646-14.141 17.879-28.323 20.277-4.388.772-14.791.65-19.504-.203-10.281-1.829-20.033-6.908-26.047-13.572-2.357-2.601-6.949-9.387-6.664-9.875.121-.162 1.178-.812 2.356-1.503 1.138-.65 5.446-3.129 9.509-5.486l7.355-4.267 1.544 2.276c2.154 3.291 6.867 7.802 9.712 9.305 8.167 4.308 19.383 3.698 24.909-1.259 2.357-2.154 3.332-4.389 3.332-7.68 0-2.967-.366-4.267-1.91-6.502-1.991-2.844-6.054-5.242-17.595-10.24-13.206-5.689-18.895-9.224-24.096-14.832-3.007-3.25-5.852-8.452-7.03-12.8-.975-3.616-1.219-12.678-.447-16.335 2.722-12.759 12.353-21.658 26.25-24.3 4.511-.853 14.994-.528 19.424.569z"/></svg>

<svg xmlns="http://www.w3.org/2000/svg" width="256" height="256" fill="none" viewBox="0 0 256 256"><rect width="256" height="256" fill="#007ACC" rx="60"/><path fill="#fff" d="M56.6112 128.849L56.5299 139.333H73.1902H89.8505L89.8505 186.673V234.012H101.635H113.419V186.673L113.419 139.333H130.079H146.739V129.052C146.739 123.363 146.618 118.609 146.455 118.487C146.333 118.325 126.056 118.243 101.472 118.284L56.7331 118.406L56.6112 128.849Z"/><path fill="#fff" d="M206.567 118.108C213.068 119.734 218.026 122.619 222.577 127.332C224.934 129.852 228.428 134.444 228.713 135.541C228.794 135.866 217.66 143.343 210.915 147.528C210.671 147.691 209.695 146.634 208.598 145.009C205.307 140.214 201.853 138.141 196.57 137.776C188.809 137.247 183.811 141.311 183.852 148.097C183.852 150.088 184.136 151.266 184.949 152.892C186.655 156.427 189.825 158.54 199.781 162.847C218.107 170.731 225.949 175.932 230.826 183.327C236.271 191.576 237.49 204.742 233.792 214.535C229.729 225.181 219.651 232.414 205.469 234.812C201.081 235.584 190.678 235.462 185.965 234.609C175.684 232.78 165.932 227.701 159.918 221.037C157.561 218.436 152.969 211.65 153.254 211.162C153.375 211 154.432 210.35 155.61 209.659C156.748 209.009 161.056 206.53 165.119 204.173L172.474 199.906L174.018 202.182C176.172 205.473 180.885 209.984 183.73 211.487C191.897 215.795 203.113 215.185 208.639 210.228C210.996 208.074 211.971 205.839 211.971 202.548C211.971 199.581 211.605 198.281 210.061 196.046C208.07 193.202 204.007 190.804 192.466 185.806C179.26 180.117 173.571 176.582 168.37 170.974C165.363 167.724 162.518 162.522 161.34 158.174C160.365 154.558 160.121 145.496 160.893 141.839C163.615 129.08 173.246 120.181 187.143 117.539C191.654 116.686 202.137 117.011 206.567 118.108Z"/></svg>
